Project/img/COMP.svg

<svg xmlns="http://www.w3.org/2000/svg" xmlns:xlink="http://www.w3.org/1999/xlink" preserveAspectRatio="xMidYMid" width="31" height="28" viewBox="0 0 31 28">
  <defs>
    <style>
      .cls-1 {
        fill: #95e1d3;
        fill-rule: evenodd;
      }
    </style>
  </defs>
  <path d="M29.500,23.000 L22.000,23.000 L20.000,23.000 L20.000,25.500 L22.000,27.500 L22.000,28.000 L9.000,28.000 L9.000,27.500 L11.000,25.500 L11.000,23.000 L9.000,23.000 L1.500,23.000 C0.672,23.000 0.000,22.328 0.000,21.499 L0.000,1.500 C0.000,0.671 0.672,0.000 1.500,0.000 L29.500,0.000 C30.328,0.000 31.000,0.671 31.000,1.500 L31.000,21.499 C31.000,22.328 30.328,23.000 29.500,23.000 ZM29.000,2.000 L2.000,2.000 L2.000,19.000 L29.000,19.000 L29.000,2.000 ZM12.500,9.000 C12.914,9.000 13.289,9.168 13.561,9.439 L13.561,9.439 L14.500,10.378 L17.439,7.439 L17.439,7.439 C17.711,7.168 18.086,7.000 18.500,7.000 C19.328,7.000 20.000,7.671 20.000,8.500 C20.000,8.914 19.832,9.289 19.561,9.561 L19.561,9.561 L15.561,13.561 L15.561,13.561 C15.289,13.832 14.914,14.000 14.500,14.000 C14.086,14.000 13.711,13.832 13.439,13.561 L13.439,13.561 L11.439,11.560 L11.439,11.560 C11.168,11.289 11.000,10.914 11.000,10.500 C11.000,9.672 11.672,9.000 12.500,9.000 Z" class="cls-1"/>
</svg>

<svg xmlns="http://www.w3.org/2000/svg" width="31" height="28" preserveAspectRatio="xMidYMid"><defs><style>.cls-1 { fill: #95e1d3; fill-rule: evenodd; }</style></defs><path d="M29.5 23H20v2.5l2 2v.5H9v-.5l2-2V23H1.5C.67 23 0 22.33 0 21.5v-20C0 .67.67 0 1.5 0h28c.83 0 1.5.67 1.5 1.5v20c0 .83-.67 1.5-1.5 1.5zM29 2H2v17h27V2zM12.5 9c.4 0 .8.17 1.06.44l.94.94 2.94-2.94c.27-.27.65-.44 1.06-.44.83 0 1.5.67 1.5 1.5 0 .4-.17.8-.44 1.06l-4 4c-.27.27-.65.44-1.06.44-.4 0-.8-.17-1.06-.44l-2-2c-.27-.27-.44-.65-.44-1.06 0-.83.67-1.5 1.5-1.5z" class="cls-1"/></svg>
